X:80
T: Jungfer Doertchen
N: Q0057S
O: Mitteleuropa, Deutschland (BRD) , Hessen, Nassau
R: Ballade, Todesahnung, Tod, Selbstmord
M: 3/4
L: 1/16
K: G
G2G2B2 | d6d2e2d2 | B4z2
d2g2e2 | d4B2B2c2d2 | B4z2
B2B2B2 | A4d4e2ed | B4z2
d2g2e2 | d4B2d2e2d2 | G4z2
B2B2B2 | A4d4e2ed | B4z2
d2g2e2 | d4B2d2e2d2 | G4z2

@@@ Tune index: 956
